icons/copilot-96.svg

<svg width="96" height="96" viewBox="0 0 96 96" fill="none" xmlns="http://www.w3.org/2000/svg">
<g clip-path="url(#clip0_9247_119315)">
<path fill-rule="evenodd" clip-rule="evenodd" d="M95.6671 67.9538C92.2253 73.9326 72.2404 88.0401 47.9974 88.0401C23.7544 88.0401 3.76949 73.9326 0.327751 67.9538C0.0760553 67.5165 -0.00518799 67.0174 -0.00518799 66.5129V55.8693C-0.00518799 55.428 0.0629219 54.9896 0.226176 54.5796C1.71451 50.8425 5.61239 45.4138 10.6429 43.9572C11.3098 42.2451 12.2976 39.7423 13.2192 37.8948C13.0649 36.4812 13.0106 35.0233 13.0106 33.5503C13.0106 28.2284 14.1387 23.5604 17.5377 20.0843C19.1253 18.4607 21.0952 17.2153 23.4313 16.2791C29.0263 11.7337 36.9936 7.90988 47.911 7.90988C58.8285 7.90988 66.9685 11.7337 72.5635 16.2791C74.8997 17.2153 76.8695 18.4607 78.4571 20.0843C81.8561 23.5604 82.9842 28.2284 82.9842 33.5503C82.9842 35.0233 82.9299 36.4812 82.7756 37.8948C83.6972 39.7423 84.685 42.2451 85.3519 43.9572C90.3824 45.4138 94.2803 50.8425 95.7686 54.5796C95.9319 54.9896 96 55.428 96 55.8693V66.5129C96 67.0174 95.9188 67.5165 95.6671 67.9538ZM51.2491 32.2601C51.079 30.9345 50.9981 29.7475 50.9958 28.6869L50.9958 28.6031C51.0011 25.5263 51.6736 23.5243 52.748 22.2948C54.1123 20.7334 56.9319 19.5372 62.8746 20.1803C68.8954 20.8319 72.2607 22.3262 74.1687 24.2775C76.0159 26.1666 76.9864 28.993 76.9864 33.5503C76.9864 38.3923 76.2886 41.253 74.7543 42.9932C73.2953 44.6479 70.4224 45.9944 64.13 45.9944C59.2925 45.9944 56.5268 44.421 54.7586 42.2451C52.8599 39.9086 51.7915 36.4858 51.2491 32.2601ZM44.7457 32.2601C44.9158 30.9345 44.9967 29.7475 44.999 28.6869L44.999 28.6031C44.9937 25.5263 44.3212 23.5243 43.2468 22.2947C41.8825 20.7334 39.0629 19.5372 33.1202 20.1803C27.0994 20.8319 23.7341 22.3262 21.8261 24.2775C19.9789 26.1666 19.0084 28.993 19.0084 33.5503C19.0084 38.3923 19.7063 41.253 21.2405 42.9932C22.6995 44.6479 25.5724 45.9944 31.8649 45.9944C36.7023 45.9944 39.4681 44.421 41.2362 42.2451C43.1349 39.9086 44.2034 36.4858 44.7457 32.2601ZM48.6861 43.9934C48.9156 43.9934 48.4565 43.9946 48.6861 43.9934C48.4566 43.9934 47.5384 43.9946 47.3087 43.9934C46.8855 44.7024 46.4148 45.3827 45.8908 46.0275C42.8133 49.8148 38.2193 51.9921 31.8648 51.9921C24.9677 51.9921 19.9129 50.5566 16.7416 46.9597C16.5613 46.7552 16.4 46.541 16.4 46.541L16.0095 46.9597V73.2863C21.7466 76.4041 34.0603 81.9992 47.9974 81.9992C61.9345 81.9992 74.2482 76.4041 79.9853 73.2863V46.9597L79.5948 46.541C79.5948 46.541 79.4627 46.7221 79.2532 46.9597C76.0819 50.5566 71.0272 51.9921 64.13 51.9921C57.7755 51.9921 53.1815 49.8148 50.104 46.0275C49.58 45.3827 49.1093 44.7024 48.6861 43.9934Z" fill="black"/>
<path fill-rule="evenodd" clip-rule="evenodd" d="M38.5 55.75C40.433 55.75 42 57.317 42 59.25V67.75C42 69.683 40.433 71.25 38.5 71.25C36.567 71.25 35 69.683 35 67.75V59.25C35 57.317 36.567 55.75 38.5 55.75Z" fill="black"/>
<path fill-rule="evenodd" clip-rule="evenodd" d="M57.5 55.75C59.433 55.75 61 57.317 61 59.25V67.75C61 69.683 59.433 71.25 57.5 71.25C55.567 71.25 54 69.683 54 67.75V59.25C54 57.317 55.567 55.75 57.5 55.75Z" fill="black"/>
</g>
<defs>
<clipPath id="clip0_9247_119315">
<rect width="96" height="96" fill="white"/>
</clipPath>
</defs>
</svg>

<svg xmlns="http://www.w3.org/2000/svg" width="96" height="96" viewBox="0 0 96 96"><path d="M95.667 67.954C92.225 73.933 72.24 88.04 47.997 88.04 23.754 88.04 3.769 73.933.328 67.954c-.216-.375-.307-.796-.328-1.226V55.661c.019-.371.089-.736.226-1.081 1.489-3.738 5.386-9.166 10.417-10.623.667-1.712 1.655-4.215 2.576-6.062-.154-1.414-.208-2.872-.208-4.345 0-5.322 1.128-9.99 4.527-13.466 1.587-1.623 3.557-2.869 5.893-3.805 5.595-4.545 13.563-8.369 24.48-8.369s19.057 3.824 24.652 8.369c2.337.936 4.306 2.182 5.894 3.805 3.399 3.476 4.527 8.144 4.527 13.466 0 1.473-.054 2.931-.208 4.345.921 1.847 1.909 4.35 2.576 6.062 5.03 1.457 8.928 6.885 10.417 10.623.163.41.231.848.231 1.289v10.644c0 .504-.081 1.004-.333 1.441ZM48.686 43.993l-.3.001-1.077-.001c-.423.709-.894 1.39-1.418 2.035-3.078 3.787-7.672 5.964-14.026 5.964-6.897 0-11.952-1.435-15.123-5.032a7.886 7.886 0 0 1-.342-.419l-.39.419v26.326c5.737 3.118 18.05 8.713 31.987 8.713 13.938 0 26.251-5.595 31.988-8.713V46.96l-.39-.419s-.132.181-.342.419c-3.171 3.597-8.226 5.032-15.123 5.032-6.354 0-10.949-2.177-14.026-5.964a17.178 17.178 0 0 1-1.418-2.034h-.066l.066-.001Zm-3.94-11.733c.17-1.326.251-2.513.253-3.573v-.084c-.005-3.077-.678-5.079-1.752-6.308-1.365-1.562-4.184-2.758-10.127-2.115-6.021.652-9.386 2.146-11.294 4.098-1.847 1.889-2.818 4.715-2.818 9.272 0 4.842.698 7.703 2.232 9.443 1.459 1.655 4.332 3.001 10.625 3.001 4.837 0 7.603-1.573 9.371-3.749 1.899-2.336 2.967-5.759 3.51-9.985Zm6.503 0c.543 4.226 1.611 7.649 3.51 9.985 1.768 2.176 4.533 3.749 9.371 3.749 6.292 0 9.165-1.346 10.624-3.001 1.535-1.74 2.232-4.601 2.232-9.443 0-4.557-.97-7.383-2.817-9.272-1.908-1.952-5.274-3.446-11.294-4.098-5.943-.643-8.763.553-10.127 2.115-1.074 1.229-1.747 3.231-1.752 6.308v.084c.002 1.06.083 2.247.253 3.573Zm-2.563 11.734h.066l-.066-.001v.001Z"/><path d="M38.5 55.75a3.5 3.5 0 0 1 3.5 3.5v8.5a3.5 3.5 0 1 1-7 0v-8.5a3.5 3.5 0 0 1 3.5-3.5Zm19 0a3.5 3.5 0 0 1 3.5 3.5v8.5a3.5 3.5 0 1 1-7 0v-8.5a3.5 3.5 0 0 1 3.5-3.5Z"/></svg>
